X:2
T:Coffee-Drinking Intellectuals
L:1/8
M:C|
C:T. S. Macdonald
K:A
C<EA>B (c/B/)A/G/ A2 | C<EA>E D<B,B,2 | C<EA>B (c/d/)e/f/ =g2 |1 e<ca>e c<A A2 :|2 (3edc (3aed c<A A2 ||
a>ec<A =g>dB<=G | f>de>c d<BB2 | c<Ad<B e<ag>f | e<ca>e c<A A2 |
a>ec<A =g>dB<=G | (3fed (3edc d<BB>c | C<EA>B (c/d/)e/f/ =g2 | (3edc (3aed c<A A2 |]

